images/wheel.svg

<svg width="203" height="202" viewBox="0 0 203 202" fill="none" xmlns="http://www.w3.org/2000/svg">
<path d="M179.639 163.709C192.687 146.504 200.426 125.874 201.907 104.346C202.925 84.2916 195.462 62.6895 184.946 45.8287C172.588 26.2102 154.125 14.3811 132.632 6.42239C109.807 -1.94752 86.5947 -0.229992 64.4238 8.84144H64.2543C45.1123 16.3889 29.096 28.1938 18.0711 45.7319C7.48246 62.6653 -0.00473404 84.1706 1.10986 104.249C2.42578 124.775 9.44909 144.529 21.3907 161.29C33.5059 178.223 50.9275 188.553 70.2876 195.665C107.748 209.453 155.385 195.713 179.639 163.709ZM128.077 182.118C120.889 163.233 113.684 144.332 106.464 125.415C107.287 123.311 108.087 121.182 108.887 119.053L115.09 121.859C123.409 140.325 131.712 158.79 139.999 177.256L140.144 177.473C136.285 179.452 132.284 181.142 128.174 182.529C128.147 182.415 128.115 182.302 128.077 182.19V182.118ZM17.4169 118.642C16.9807 116.828 16.6173 114.989 16.3023 113.175C23.111 110.756 29.8713 108.337 36.6074 105.603C37.5596 105.274 38.3854 104.657 38.9699 103.838C39.5544 103.018 39.8685 102.037 39.8685 101.031C39.8685 100.025 39.5544 99.0445 38.9699 98.225C38.3854 97.4056 37.5596 96.7884 36.6074 96.4594C29.839 93.7984 23.0303 91.2585 16.1812 88.8394C16.4719 87.0009 16.8111 85.1625 17.2231 83.324C17.3607 83.411 17.5069 83.4839 17.6592 83.5417L63.697 101.031L17.6592 118.521L17.4169 118.642ZM20.1792 74.3977H19.7672C21.1796 70.3039 22.8884 66.3181 24.8799 62.4717H25.0737L80.5613 87.3396L83.3479 93.5565L76.9752 95.9756L20.1792 74.3977ZM32.9243 49.675C39.3211 52.6988 45.7664 55.65 52.3086 58.4803C53.2173 58.9298 54.2444 59.0834 55.2451 58.9194C56.2458 58.7554 57.1697 58.2821 57.8868 57.5662C58.6038 56.8503 59.0779 55.9279 59.2421 54.9288C59.4064 53.9298 59.2526 52.9045 58.8024 51.9973C55.9917 45.4901 53.0598 39.0796 50.0068 32.6449C51.5091 31.5321 53.0356 30.4677 54.6106 29.4517L74.746 74.2525L29.8471 54.1503H29.6775C30.8405 52.7472 31.7855 51.2232 32.9243 49.7476V49.675ZM67.9373 22.6542C68.2765 22.5091 68.543 22.3397 68.8338 22.1946C69.1246 22.0495 69.3669 22.0495 69.6334 21.9285C71.3296 21.2028 73.0257 20.5497 74.746 19.9691C81.9667 38.8538 89.1712 57.7385 96.3595 76.6232L93.9365 83.0095L87.7093 80.2034L62.8489 24.9039C64.5289 24.1298 66.225 23.4041 67.9373 22.7268V22.6542ZM89.3812 16.4131C91.8042 23.0897 94.2273 29.742 96.8442 36.3218C97.1737 37.2725 97.7919 38.0969 98.6127 38.6805C99.4335 39.264 100.416 39.5775 101.424 39.5775C102.431 39.5775 103.414 39.264 104.235 38.6805C105.055 38.0969 105.674 37.2725 106.003 36.3218C108.62 29.6936 111.116 23.0252 113.49 16.3163C115.356 16.5582 117.198 16.8485 119.039 17.2114L118.918 17.4049C113.103 32.7094 107.271 48.0301 101.424 63.3668L83.9051 17.4049C85.7224 17.0904 87.5397 16.7517 89.3812 16.4856V16.4131ZM148.503 28.7744C150.103 29.7904 151.653 30.8548 153.18 31.9675C150.006 38.5957 146.953 45.2482 144.045 51.9973C143.595 52.9045 143.441 53.9298 143.605 54.9288C143.769 55.9279 144.244 56.8503 144.961 57.5662C145.678 58.2821 146.602 58.7554 147.602 58.9194C148.603 59.0834 149.63 58.9298 150.539 58.4803C157.178 55.6097 163.752 52.6182 170.262 49.5056C171.328 51.0296 172.346 52.5779 173.34 54.1744L172.976 54.2954L128.077 74.3977C134.797 59.4641 141.517 44.5305 148.237 29.5969C148.341 29.3526 148.43 29.1022 148.503 28.847V28.7744ZM177.774 62.4717C179.648 66.3371 181.267 70.3209 182.62 74.3977H182.45L125.848 95.9756L119.475 93.5565L122.262 87.3396L177.774 62.4717ZM186.569 88.8636C179.736 91.2826 172.952 93.7017 166.24 96.4594C165.288 96.7884 164.462 97.4056 163.878 98.225C163.293 99.0445 162.979 100.025 162.979 101.031C162.979 102.037 163.293 103.018 163.878 103.838C164.462 104.657 165.288 105.274 166.24 105.603C172.952 108.264 179.736 110.78 186.569 113.199C186.254 115.013 185.891 116.852 185.455 118.642L185.164 118.521L139.126 101.031L185.164 83.5417H185.431C185.915 85.3076 186.23 87.1219 186.569 88.9361V88.8636ZM177.774 139.664L122.262 114.82C121.341 112.74 120.396 110.659 119.475 108.603L125.848 106.184L182.644 127.762C181.245 131.817 179.619 135.791 177.774 139.664ZM150.539 143.655C149.63 143.206 148.603 143.052 147.602 143.216C146.602 143.38 145.678 143.853 144.961 144.569C144.244 145.285 143.769 146.208 143.605 147.207C143.441 148.206 143.595 149.231 144.045 150.138C146.88 156.694 149.86 163.177 152.938 169.636C151.435 170.748 149.909 171.813 148.334 172.829C148.323 172.732 148.323 172.635 148.334 172.538C141.598 157.605 134.878 142.671 128.174 127.738L173.073 147.84H173.34C172.346 149.437 171.304 150.961 170.19 152.485C163.664 149.469 157.113 146.526 150.539 143.655ZM99.8003 104.708L98.4191 104.104L97.7892 102.725L97.1834 101.104L97.7892 99.4832L98.4191 98.1044L99.8003 97.4754L101.424 96.8706L103.047 97.4754L104.428 98.1044L105.034 99.4832C105.252 100.015 105.446 100.572 105.664 101.104C105.446 101.636 105.252 102.193 105.034 102.725L104.428 104.104L103.047 104.708L101.424 105.337L99.8003 104.708ZM140.338 24.3234C140.338 24.5169 140.12 24.662 140.023 24.8797C131.736 43.329 123.433 61.7944 115.114 80.2759L108.911 83.0821L106.488 76.6958C113.709 57.7949 120.913 38.8941 128.101 19.9933C128.153 19.8597 128.193 19.7222 128.223 19.582C132.375 20.8539 136.425 22.4389 140.338 24.3234ZM20.0822 127.762L76.8783 106.184L83.2509 108.603C82.3302 110.659 81.4094 112.74 80.4644 114.82L24.9768 139.664H24.8314C23.0133 135.794 21.4275 131.82 20.0822 127.762ZM54.4652 172.998C52.8417 172.006 51.291 170.966 49.7645 169.902C52.8902 163.37 55.919 156.79 58.7782 150.138C59.2284 149.231 59.3822 148.206 59.2179 147.207C59.0537 146.208 58.5796 145.285 57.8625 144.569C57.1455 143.853 56.2215 143.38 55.2208 143.216C54.2201 143.052 53.1931 143.206 52.2845 143.655C45.6211 146.534 39.0304 149.558 32.4882 152.678C31.4221 151.154 30.3802 149.582 29.411 147.985L29.8471 147.84L74.746 127.738L54.6106 172.538C54.5477 172.687 54.4991 172.841 54.4652 172.998ZM62.7035 177.498V177.328C71.0226 158.879 79.3256 140.414 87.6124 121.932L93.8396 119.126C94.6392 121.255 95.463 123.383 96.2626 125.488C89.0581 144.405 81.8536 163.306 74.6491 182.19C74.6522 182.247 74.6522 182.303 74.6491 182.36C70.5707 180.986 66.5812 179.362 62.7035 177.498ZM83.784 184.972C83.7754 184.892 83.7754 184.811 83.784 184.73L101.303 138.769C107.15 154.089 112.982 169.41 118.797 184.73L119.015 185.142C117.198 185.553 115.356 185.892 113.49 186.182C111.067 179.336 108.644 172.563 105.882 165.814C105.553 164.863 104.934 164.038 104.114 163.455C103.293 162.871 102.31 162.558 101.303 162.558C100.295 162.558 99.3124 162.871 98.4916 163.455C97.6708 164.038 97.0526 164.863 96.723 165.814C94.0577 172.538 91.5377 179.288 89.1147 186.085L86.6916 185.65C85.8193 185.48 84.8017 185.214 83.784 184.972Z" stroke="url(#paint0_linear_58_99)" stroke-miterlimit="10"/>
<defs>
<linearGradient id="paint0_linear_58_99" x1="-58869.9" y1="-40779" x2="-41979.9" y2="-40779" gradientUnits="userSpaceOnUse">
<stop stop-color="#A07913"/>
<stop offset="1" stop-color="#D0A043"/>
</linearGradient>
</defs>
</svg>

<svg width="203" height="202" fill="none" xmlns="http://www.w3.org/2000/svg"><path d="M179.639 163.709a110.827 110.827 0 0022.268-59.363c1.018-20.054-6.445-41.657-16.961-58.517-12.358-19.619-30.821-31.448-52.314-39.407-22.825-8.37-46.037-6.652-68.208 2.42h-.17c-19.142 7.547-35.158 19.352-46.183 36.89C7.482 62.665-.005 84.17 1.11 104.249a110.484 110.484 0 0020.28 57.041c12.116 16.933 29.538 27.263 48.898 34.375 37.46 13.788 85.097.048 109.351-31.956zm-51.562 18.409a66333.552 66333.552 0 00-21.613-56.703 508.32 508.32 0 002.423-6.362l6.203 2.806a42136.265 42136.265 0 0124.909 55.397l.145.217a87.648 87.648 0 01-11.97 5.056 3.727 3.727 0 00-.097-.339v-.072zm-110.66-63.476a87.4 87.4 0 01-1.115-5.467c6.809-2.419 13.57-4.838 20.305-7.572a4.836 4.836 0 000-9.144 621.714 621.714 0 00-20.426-7.62 88.13 88.13 0 011.042-5.515c.138.087.284.16.436.218l46.038 17.489-46.038 17.49-.242.121zm2.762-44.244h-.412a89.24 89.24 0 015.113-11.926h.194L80.56 87.34l2.787 6.216-6.373 2.42L20.18 74.398zm12.745-24.723c6.397 3.024 12.842 5.975 19.385 8.805a4.853 4.853 0 005.578-.914 4.835 4.835 0 00.915-5.569 601.146 601.146 0 00-8.795-19.352 86.52 86.52 0 014.604-3.193l20.135 44.8L29.847 54.15h-.17c1.163-1.403 2.108-2.927 3.247-4.402v-.073zm35.013-27.02c.34-.146.606-.315.897-.46.29-.146.533-.146.8-.267a69.364 69.364 0 015.112-1.959c7.22 18.885 14.425 37.77 21.614 56.654l-2.424 6.386-6.227-2.806-24.86-55.3c1.68-.773 3.376-1.499 5.088-2.176v-.073zm21.444-6.242c2.423 6.677 4.846 13.329 7.463 19.909a4.839 4.839 0 004.58 3.255 4.84 4.84 0 004.579-3.256 594.458 594.458 0 007.487-20.005c1.866.242 3.708.533 5.549.895l-.121.194a43689.123 43689.123 0 01-17.494 45.962L83.905 17.405c1.817-.315 3.635-.653 5.476-.92v-.072zm59.122 12.361c1.6 1.016 3.15 2.08 4.677 3.194a552.946 552.946 0 00-9.135 20.03 4.834 4.834 0 003.557 6.921 4.855 4.855 0 002.937-.439 571.904 571.904 0 0019.723-8.974 104.24 104.24 0 013.078 4.668l-.364.121-44.899 20.103 20.16-44.801c.104-.244.193-.495.266-.75v-.073zm29.271 33.698a98.349 98.349 0 014.846 11.926h-.17l-56.602 21.578-6.373-2.42 2.787-6.216 55.512-24.868zm8.795 26.392c-6.833 2.419-13.617 4.838-20.329 7.595a4.843 4.843 0 00-3.261 4.572 4.833 4.833 0 003.261 4.572c6.712 2.661 13.496 5.177 20.329 7.596a83.434 83.434 0 01-1.114 5.443l-.291-.121-46.038-17.49 46.038-17.49h.267c.484 1.767.799 3.58 1.138 5.395v-.072zm-8.795 50.8l-55.512-24.844c-.921-2.08-1.866-4.161-2.787-6.217l6.373-2.419 56.796 21.578a114.527 114.527 0 01-4.87 11.902zm-27.235 3.991a4.848 4.848 0 00-6.934 3.552 4.833 4.833 0 00.44 2.931c2.835 6.556 5.815 13.039 8.893 19.498a87.283 87.283 0 01-4.604 3.193 1.287 1.287 0 010-.291 27568.459 27568.459 0 01-20.16-44.8l44.899 20.102h.267a74.868 74.868 0 01-3.15 4.645 1018.296 1018.296 0 00-19.651-8.83zM99.8 104.708l-1.38-.604-.63-1.379-.607-1.621.606-1.62.63-1.38 1.381-.629 1.624-.604 1.623.604 1.381.63.606 1.378c.218.532.412 1.089.63 1.621-.218.532-.412 1.089-.63 1.621l-.606 1.379-1.381.604-1.623.629-1.624-.629zm40.538-80.385c0 .194-.218.339-.315.557a76954.2 76954.2 0 01-24.909 55.396l-6.203 2.806-2.423-6.386a39851.3 39851.3 0 0021.613-56.703c.052-.133.092-.27.122-.411a85.921 85.921 0 0112.115 4.741zM20.082 127.762l56.796-21.578 6.373 2.419c-.92 2.056-1.842 4.137-2.787 6.217l-55.487 24.844h-.146a107.676 107.676 0 01-4.749-11.902zm34.383 45.236a93.077 93.077 0 01-4.7-3.096c3.125-6.532 6.154-13.112 9.013-19.764a4.829 4.829 0 00-.916-5.569 4.848 4.848 0 00-5.578-.914c-6.663 2.879-13.254 5.903-19.796 9.023a86.737 86.737 0 01-3.077-4.693l.436-.145 44.899-20.102-20.135 44.8a2.586 2.586 0 00-.146.46zm8.238 4.5v-.17c8.32-18.449 16.623-36.914 24.91-55.396l6.227-2.806c.8 2.129 1.623 4.257 2.423 6.362-7.205 18.917-14.41 37.818-21.614 56.702.003.057.003.113 0 .17a104.81 104.81 0 01-11.946-4.862zm21.081 7.474a1.138 1.138 0 010-.242l17.519-45.961c5.847 15.32 11.679 30.641 17.494 45.961l.218.412c-1.817.411-3.659.75-5.525 1.04-2.423-6.846-4.846-13.619-7.608-20.368a4.85 4.85 0 00-9.159 0 618.925 618.925 0 00-7.608 20.271l-2.423-.435c-.873-.17-1.89-.436-2.908-.678z" stroke="url(#paint0_linear_58_99)" stroke-miterlimit="10"/><defs><linearGradient id="paint0_linear_58_99" x1="-58869.9" y1="-40779" x2="-41979.9" y2="-40779" gradientUnits="userSpaceOnUse"><stop stop-color="#A07913"/><stop offset="1" stop-color="#D0A043"/></linearGradient></defs></svg>
